images_sukapura_svg/cmd/32/entirecolumn.svg

<svg viewBox="0 0 32 32" xmlns="http://www.w3.org/2000/svg" xmlns:xlink="http://www.w3.org/1999/xlink"><linearGradient id="a" gradientUnits="userSpaceOnUse" x1="15" x2="15" y1="4" y2="28"><stop offset="0" stop-color="#efefef"/><stop offset=".33333334" stop-color="#fff"/><stop offset=".8888889" stop-color="#fff"/><stop offset="1" stop-color="#f5f5f5"/></linearGradient><filter id="b" color-interpolation-filters="sRGB" height="1.116265" width="1.123983" x="-.061992" y="-.058132"><feGaussianBlur stdDeviation=".61991525"/></filter><path d="m4 4h24v24h-24z" fill="#ff9f0a"/><path d="m4 4h24v25.59322h-24z" filter="url(#b)" opacity=".15" stroke-width="1.032659"/><path d="m4 3c-.554 0-1 .446-1 1v5 19c0 .554.446 1 1 1h24c.554 0 1-.446 1-1v-19-5c0-.554-.446-1-1-1zm0 1h24v5 4 1 4 1 4 1 4h-6-1-5-1-5-1-5v-4-1-4-1-4-1-4-1z" fill="#69696e"/><path d="m4 4h24v24h-24z" fill="url(#a)"/><path d="m15 4v24h-5v-24z" fill="#ff9f0a" stroke-width=".445675"/><path d="m9 4v4h-5v1h5v4h-5v1h5v4h-5v1h5v4h-5v1h5v4h1v-4h5v4h1v-4h5v4h1v-4h6v-1h-6v-4h6v-1h-6v-4h6v-1h-6v-4h6v-1h-6v-4h-1v4h-5v-4h-1v4h-5v-4zm1 5h5v4h-5zm6 0h5v4h-5zm-6 5h5v4h-5zm6 0h5v4h-5zm-6 5h5v4h-5zm6 0h5v4h-5z" fill="#bababa"/><g fill="#c93400"><path d="m16 4c0-.554-.446-1-1-1h-5c-.554 0-1 .446-1 1v24c0 .554.446 1 1 1h5c.554 0 1-.446 1-1zm-1 0v24h-5v-6-1-5-1-5-1-5z"/><g transform="rotate(90)"><path d="m8-15h1v5h-1z"/><path d="m13-15h1v5h-1z"/><path d="m18-15h1v5h-1z"/><path d="m23-15h1v5h-1z"/></g></g></svg>

<?xml version="1.0" encoding="UTF-8" standalone="no"?>
<svg
   xmlns:dc="http://purl.org/dc/elements/1.1/"
   xmlns:cc="http://creativecommons.org/ns#"
   xmlns:rdf="http://www.w3.org/1999/02/22-rdf-syntax-ns#"
   xmlns:svg="http://www.w3.org/2000/svg"
   xmlns="http://www.w3.org/2000/svg"
   xmlns:sodipodi="http://sodipodi.sourceforge.net/DTD/sodipodi-0.dtd"
   xmlns:inkscape="http://www.inkscape.org/namespaces/inkscape"
   viewBox="0 0 32 32"
   version="1.1"
   id="svg1103"
   sodipodi:docname="entirecolumn.svg"
   inkscape:export-filename="/home/rizmut/Dokumen/Rizmut/Github/libreoffice-style-sukapura/images_sukapura/cmd/32/entirerow.png"
   inkscape:export-xdpi="96"
   inkscape:export-ydpi="96"
   inkscape:version="0.92.3 (unknown)">
  <metadata
     id="metadata1109">
    <rdf:RDF>
      <cc:Work
         rdf:about="">
        <dc:format>image/svg+xml</dc:format>
        <dc:type
           rdf:resource="http://purl.org/dc/dcmitype/StillImage" />
        <dc:title></dc:title>
      </cc:Work>
    </rdf:RDF>
  </metadata>
  <defs
     id="defs1107" />
  <sodipodi:namedview
     pagecolor="#ffffff"
     bordercolor="#666666"
     borderopacity="1"
     objecttolerance="10"
     gridtolerance="10"
     guidetolerance="10"
     inkscape:pageopacity="0"
     inkscape:pageshadow="2"
     inkscape:window-width="1366"
     inkscape:window-height="706"
     id="namedview1105"
     showgrid="false"
     inkscape:zoom="10.429825"
     inkscape:cx="28.3775"
     inkscape:cy="13.683538"
     inkscape:window-x="0"
     inkscape:window-y="0"
     inkscape:window-maximized="1"
     inkscape:current-layer="svg1103" />
  <linearGradient
     id="a"
     gradientUnits="userSpaceOnUse"
     x1="15"
     x2="15"
     y1="4"
     y2="28">
    <stop
       offset="0"
       stop-color="#efefef"
       id="stop1079" />
    <stop
       offset=".33333334"
       stop-color="#fff"
       id="stop1081" />
    <stop
       offset=".8888889"
       stop-color="#fff"
       id="stop1083" />
    <stop
       offset="1"
       stop-color="#f5f5f5"
       id="stop1085" />
  </linearGradient>
  <filter
     id="b"
     color-interpolation-filters="sRGB"
     height="1.116265"
     width="1.123983"
     x="-.061992"
     y="-.058132">
    <feGaussianBlur
       stdDeviation=".61991525"
       id="feGaussianBlur1088" />
  </filter>
  <path
     inkscape:connector-curvature="0"
     d="M 4,4 H 28 V 28 H 4 Z"
     id="path5724"
     style="fill:#ff9f0a;fill-opacity:1" />
  <path
     d="m4 4h24v25.59322h-24z"
     filter="url(#b)"
     opacity=".15"
     stroke-width="1.032659"
     id="path1091" />
  <path
     d="M 4 3 C 3.446 3 3 3.446 3 4 L 3 9 L 3 28 C 3 28.554 3.446 29 4 29 L 28 29 C 28.554 29 29 28.554 29 28 L 29 9 L 29 4 C 29 3.446 28.554 3 28 3 L 4 3 z M 4 4 L 28 4 L 28 9 L 28 13 L 28 14 L 28 18 L 28 19 L 28 23 L 28 24 L 28 28 L 22 28 L 21 28 L 16 28 L 15 28 L 10 28 L 9 28 L 4 28 L 4 24 L 4 23 L 4 19 L 4 18 L 4 14 L 4 13 L 4 9 L 4 8 L 4 4 z "
     id="path1093"
     style="fill:#69696e;fill-opacity:1" />
  <path
     d="m4 4h24v24h-24z"
     fill="url(#a)"
     id="path1095" />
  <path
     inkscape:connector-curvature="0"
     d="M 15,4 V 28 H 10 V 4 Z"
     id="path5724-3"
     style="fill:#ff9f0a;fill-opacity:1;stroke-width:0.44567508"
     sodipodi:nodetypes="ccccc" />
  <path
     style="fill:#bababa;fill-opacity:1"
     d="M 9 4 L 9 8 L 4 8 L 4 9 L 9 9 L 9 13 L 4 13 L 4 14 L 9 14 L 9 18 L 4 18 L 4 19 L 9 19 L 9 23 L 4 23 L 4 24 L 9 24 L 9 28 L 10 28 L 10 24 L 15 24 L 15 28 L 16 28 L 16 24 L 21 24 L 21 28 L 22 28 L 22 24 L 28 24 L 28 23 L 22 23 L 22 19 L 28 19 L 28 18 L 22 18 L 22 14 L 28 14 L 28 13 L 22 13 L 22 9 L 28 9 L 28 8 L 22 8 L 22 4 L 21 4 L 21 8 L 16 8 L 16 4 L 15 4 L 15 8 L 10 8 L 10 4 L 9 4 z M 10 9 L 15 9 L 15 13 L 10 13 L 10 9 z M 16 9 L 21 9 L 21 13 L 16 13 L 16 9 z M 10 14 L 15 14 L 15 18 L 10 18 L 10 14 z M 16 14 L 21 14 L 21 18 L 16 18 L 16 14 z M 10 19 L 15 19 L 15 23 L 10 23 L 10 19 z M 16 19 L 21 19 L 21 23 L 16 23 L 16 19 z "
     id="path5728" />
  <path
     inkscape:connector-curvature="0"
     d="M 16,4 C 16,3.446 15.554,3 15,3 H 10 C 9.446,3 9,3.446 9,4 v 24 c 0,0.554 0.446,1 1,1 h 5 c 0.554,0 1,-0.446 1,-1 z M 15,4 V 28 H 10 V 22 21 16 15 10 9 4 Z"
     id="path5722"
     style="fill:#c93400;fill-opacity:1"
     sodipodi:nodetypes="sssssssssccccccccccc" />
  <rect
     style="fill:#c93400;fill-opacity:1"
     id="rect1716"
     width="1"
     height="5"
     x="8"
     y="-15"
     transform="rotate(90)" />
  <rect
     style="fill:#c93400;fill-opacity:1"
     id="rect1718"
     width="1"
     height="5"
     x="13"
     y="-15"
     transform="rotate(90)" />
  <rect
     style="fill:#c93400;fill-opacity:1"
     id="rect1720"
     width="1"
     height="5"
     x="18"
     y="-15"
     transform="rotate(90)" />
  <rect
     transform="rotate(90)"
     y="-15"
     x="23"
     height="5"
     width="1"
     id="rect1768"
     style="fill:#c93400;fill-opacity:1" />
</svg>
